X:937
T:Angus Macleod's
S:Vic Williams, Edinburgh
N:Vic got it from George Current
Z:Nigel Gatherer
M:2/4
L:1/8
K:G
G2 G>A | Bd B2 | G2 G>A | Bd c2  |
A2 A>B | cd c2 | f>e dc | BA G2 :|
g2 g>f | ed B2 | d2 d>e | dB A2  |
G2 G>A | BG c2 | f>e dc | BA G2 :|
